svgs/duotone/vials.svg

<svg xmlns="http://www.w3.org/2000/svg" viewBox="0 0 512 512"><!-- Font Awesome Pro 6.0.0-alpha2 by @fontawesome - https://fontawesome.com License - https://fontawesome.com/license (Commercial License) --><defs><style>.fa-secondary{opacity:.4}</style></defs><path d="M200 32H24C10.746 32 0 42.742 0 56C0 69.254 10.746 80 24 80H32V400C32 444.125 67.875 480 112 480S192 444.125 192 400V80H200C213.254 80 224 69.254 224 56C224 42.742 213.254 32 200 32ZM144 400C144 417.672 129.674 432 112 432S80 417.672 80 400V80H144V400ZM488 32H312C298.746 32 288 42.742 288 56C288 69.254 298.746 80 312 80H320V400C320 444.125 355.875 480 400 480S480 444.125 480 400V80H488C501.254 80 512 69.254 512 56C512 42.742 501.254 32 488 32ZM432 400C432 417.672 417.674 432 400 432S368 417.672 368 400V80H432V400Z" class="fa-secondary"/><path d="M80 400C80 417.672 94.326 432 112 432S144 417.672 144 400V256H80V400ZM368 256V400C368 417.672 382.326 432 400 432S432 417.672 432 400V256H368Z" class="fa-primary"/></svg>

<svg xmlns="http://www.w3.org/2000/svg" viewBox="0 0 512 512"><!--! Font Awesome Pro 6.3.0 by @fontawesome - https://fontawesome.com License - https://fontawesome.com/license (Commercial License) Copyright 2023 Fonticons, Inc. --><defs><style>.fa-secondary{opacity:.4}</style></defs><path class="fa-primary" d="M80 400c0 17.67 14.33 32 32 32s32-14.33 32-32V256h-64V400zM368 256v144c0 17.67 14.33 32 32 32s32-14.33 32-32V256H368z"/><path class="fa-secondary" d="M200 32h-176C10.75 32 0 42.74 0 56C0 69.25 10.75 80 24 80H32v320C32 444.1 67.88 480 112 480S192 444.1 192 400v-320h8C213.3 80 224 69.25 224 56C224 42.74 213.3 32 200 32zM144 400c0 17.67-14.33 32-32 32s-32-14.33-32-32v-320h64V400zM488 32h-176C298.7 32 288 42.74 288 56c0 13.25 10.75 24 24 24H320v320c0 44.13 35.88 80 80 80s80-35.88 80-80v-320h8C501.3 80 512 69.25 512 56C512 42.74 501.3 32 488 32zM432 400c0 17.67-14.33 32-32 32s-32-14.33-32-32v-320h64V400z"/></svg>
